X:1
T:Title
%%score ( 1 2 ) ( 3 4 )
L:1/8
Q:1/4=90
M:4/4
K:C
V:1 treble nm="Violin, Soprano"
V:2 treble 
V:3 bass nm="Violin, Bass"
V:4 bass 
V:1
 z4 z2 [CE][DF] | [EG][EG][EG][EG] [Ec][EG][EG][EG] | [EG][DF][DF][^CE] [DF]2 [DF][DF] | %3
w: 1.~I~ have~|read~ with in~ the~ Bi ble~ How~ a~|sin ner~ vile~ and~ low,~ Need~ but~|
 [DF][DF][DF][DF] [FA][FG][FG][FG] | [EG][DF][CE][DF] [EG]2 [CE][DF] | %5
w: come~ in~ faith~ to~ Je sus~ To~ be~|washed~ as~ white~ as~ snow;~ How~ the~|
 [EG][EG][EG][EG] [Ec][EG][EG][EG] | [CG][CF][CF][CF] [FA]2[Q:1/4=90] [FA][FA][Q:1/4=12] | %7
w: heart,~ so~ stained~ and~ wick ed,~ Hard ened~|by~ the~ guilt~ of~ sin,~ May~ be~|
 [EG][CE][EG][Ec] [Ge][Gf][Ge][Fd] | [Ec][DB][FA][FB] [Ec]2 [CE][DF] | [EG]4- [EG][EG][Ec][Fd] | %10
w: pu ri fied~ and~ soft ened,~ Till~ the~|Lord~ will~ dwell~ with in.~ * *||
 [Ge]4 [Ec]2 [Gc][Gc] | [Ac]4- [Ac][Gc][Gd][Ge] | [Gd]6 G[FG] | [Ec]4- [Ec][EG][FA][EG] | %14
w: ||||
 [CE]4 [EG]2 [EG][EG] | z4 z2 .A2 | [Ec]6 z2 |] %17
w: |||
V:2
 x8 | x8 | x8 | x8 | x8 | x8 | x8 | x8 | x8 | x8 | x8 | x8 | x8 | x8 | x8 | %15
 [FA]3 [FA] [FG]2 F-[FB] | x8 |] %17
V:3
 z4 z2 [C,G,][C,G,] | [C,C][C,C][C,C][C,C] [C,C][C,C][C,C][C,C] | %2
 [G,B,][G,B,][G,B,][G,B,] [G,B,]2 [G,B,][G,B,] | %3
 [G,,G,][G,,G,][G,,G,][G,,G,] [G,,B,][G,,B,][G,,B,][G,,B,] | %4
 [C,C][C,G,][C,G,][C,G,] [C,G,]2 [C,G,][C,G,] | [C,C][C,C][C,C][C,C] [C,C][C,C][C,C][C,C] | %6
 [F,A,][F,A,][F,A,][F,A,] [F,C]2 [F,C][F,C] | [C,C][C,G,][C,G,][C,G,] [C,C][D,B,][E,C][F,A,] | %8
 G,G,G,G, [C,G,]2 [C,G,][C,G,] | [C,C][C,C][C,C][C,C] [C,C][C,C][C,G,][C,G,] | %10
 [C,C][C,C][C,C][C,C] [C,G,][C,G,][E,C][E,C] | z4 C2 z2 | z4 B,2 z2 | %13
 [C,C][C,G,][C,G,][C,G,] [C,G,][C,C][C,C][C,C] | [C,G,][C,G,][C,G,][C,G,] [C,C][C,C][C,C][C,C] | %15
 [F,C]3 [F,C] [G,B,]2 G,2 | [C,G,]6 z2 |] %17
V:4
 x8 | x8 | x8 | x8 | x8 | x8 | x8 | x8 | x8 | x8 | x8 | [F,C][F,C][F,C][F,C] F,E,[D,B,][C,C] | %12
 [G,B,][G,B,][G,B,][G,B,] G,F,[E,B,][D,B,] | x8 | x8 | x8 | x8 |] %17

